X: 1051
T: Hicazkâr Peşrev
C: Dede Salih Efendi
O: Turkey
F: http://compmusic.upf.edu/node/140
N: hicazkar--pesrev--agirduyek----dede_salih_efendi
N: makam= hicazkar
N: form= pesrev
N: usul= agirduyek = 8/4
M: 8/4
L: 1/16
K: C _1/4B _7/8e _7/8A ^f
Q: 1/4=72
%%MIDI tuningsystem comma53
g6f2 g4 =a4 z2_b2 a2g2 f4 a2b2  | \
w:   | 
=a2g4f2 e4 d4 z2f2 e2d2 c2B2 c4  | 
w:   | 
z4 d2d2 d4 f4 f2e4d2 e4 g4  | g2f4d2 e2f2 g2=a2 f4 g8 a2b2  | 
w:   |   | 
c'2b2 =a2b2 a2g2 f2g2 a2g2 f2e2 d4 g4  | \
w:   | 
gfg=a g2f2 e2d2 c2B2 c6g2 =f2_1/4e2 g4  | 
w:   | 
d2=e2 =f2g2 e2f2 d2e2 c4 f4 f2e2 d2ef  | \
w:   | 
_1/4e2d2 c2de d2c2 B2cd B2A2 A2G2 G6z2  | 
w:   | 
G2A2 G2A2 B2c2 d2e2 d2c2 B2A2 G4 c4  | \
w:   | 
c2B2 A2G2 =F2B4AG G6c2 B4 c4  | 
w:   | 
c6B2 c4 d2e2 d2c4B2 B2A2 B4  | z2B4A2 B4 c2d2 cBcd c2B2 A4 G4  | 
w:   |   | 
z2g4f2 e3d c4 def4ed d8  | z4 g2g2 g2f2 e2d2 e2f2 g2=a2 f4 g4  | 
w:   |   | 
g4 a4 a2b2 a2g2 g2a2 g2^1/4f2 _1/4e4 g4  | \
w:   | 
gfga g2f2 e2d2 c2B2 c6g2 =f2_1/4e2 g4  | 
w:   | 
d2_1/4e2 =f2g2 e2f2 d2e2 c4 f4 f2e2 d2ef  | \
w:   | 
_1/4e2d2 c2de d2c2 B2cd B2A2 A2G2 G6z2  | 
w:   | 
G2A2 G2A2 B2c2 d2e2 d2c2 B2A2 G4 c4  | \
w:   | 
c2B2 A2G2 =F2B4AG G6g2 f4 g4  | 
w:   | 
gfg=a g2f2 g4 a4 a2_b2 a2b2 a2g2 f4  | \
w:   | 
g6c'2 b2c'2 d'4 c'2b4=a2 a6z2  | 
w:   | 
b2c'6 c'bc'd' c'2b2 b3=a g4 a4 _b4  | \
w:   | 
=a2g2 f4 f2g4f2 e4 d8 c'4  | 
w:   | 
b2=a2 b2c'2 a2g2 f4 g2f2 g2a2 f2e2 d4  | \
w:   | 
e2d2 e2f2 e2d2 c2B2 c6g2 =f2=e2 g4  | 
w:   | 
d3_1/4e =f2g2 e2f2 d2e2 c4 f4 f2e2 d2ef  | \
w:   | 
_1/4e2d2 c2de d2c2 B2cd B2A2 A2G2 G8  | 
w:   | 
GAGA B2c2 d2e2 d2c2 B2A2 G4 c4 c2B2  | \
w:   | 
A2G2 =F2B4AG G6d2 c4 d4 d2c2  | 
w:   | 
d4 B2A2 G4 B2A2 B4 G2=F2 _1/4E4 G2A2  | \
w:   | 
G2B2 A2G2 A4 B2c2 B2d2 c2B2 c4 d2e2  | 
w:   | 
d2f2 e2d2 e4 d2e2 f2g2 e2f2 g4 g2f2  | \
w:   | 
g4 e2d2 c4 d2c2 d4 B2A2 G4 G2A2  | 
w:   | 
B2c2 B2A2 G2F2 G6c2 B4 c4 d2e2  | \
w:   | 
d2c2 e2d2 c2B2 c6g2 =f4 g4 d2_1/4e2  | 
w:   | 
=f2g2 _1/4e2f2 d2e2 c4 f4 f2e2 d2ef e2d2  | \
w:   | 
c2de d2c2 B2cd B2A2 A2G2 G4 G2A2 G2A2  | 
w:   | 
B2c2 d2e2 d2c2 B2A2 G4 c4 c2B2 A2G2  | \
w:   | 
=F2B4AG G16 |
w:   | 


